X:1
T:Title
%%score 1 2 3 4
L:1/8
Q:1/4=120
M:2/2
K:G
V:1 treble nm="S"
V:2 treble nm="A"
V:3 treble-8 nm="T"
V:4 bass nm="B"
V:1
 G2 G2 A4 | B4 c4 | (B2 G2) A4 | !fermata!G4 d2 d2 | e4 d4 | B2 B2 (c2 B2- | B2 A2) !fermata!B4 | %7
w: Por u- nos|puer- tos|a- * rri-|ba de mon-|ta- ña|muy es- cu- *|* * ra,|
w: En sus lá-|gri- mas|ba- * ña-|do, más que|mor- tal|su fi- gu- *|* * ra|
w: El ca- ba-|llo de-|ja * muer-|to, y\_el a|pie por|su ven- tu- *|* * ra,|
w: Hu- yen- do|de las|flo- * res-|tas, hu- yen-|do de|la fres- cu- *|* * ra,|
 d2 d2 B4 | G2 A4 (GF) | E4 !fermata!D4 | d2 d2 e4 | d4 B2 c2 | A4 !fermata!G4 :| %13
w: ca- mi- na-|ba\_el ca- ba- *|lle- ro|las- ti- ma-|do de tris-|tu- ra.|
w: su be- ber|y su co- *|mer _|es de llo-|ro y\_a- mar-|gu- ra.|
w: an- dan- do|de sie- rra\_en *|sie- rra,|de ca- mi-|no no se|cu- ra.|
w: me- te- se|de ma- ta\_en *|ma- ta|por la ma-|yor es- pe-|su- ra.|
V:2
 G2 G2 F4 | G4 G4 | G2 (G4 F2) | !fermata!G4 G2 G2 | G4 G4 | G2 G2 (G4 | E4) !fermata!E4 | %7
w: Hu- yen- do|de las|flo- res- *|tas, hu- yen-|do de|la fres- cu-|* ra,|
w: En sus lá-|gri- mas|ba- ña- *|do, más que|mor- tal|su fi- gu-|* ra|
w: Por u- nos|puer- tos|a- rri- *|ba de mon-|ta- ña|muy es- cu-|* ra,|
w: El ca- ba-|llo de-|ja muer- *|to, y\_el a|pie por|su ven- tu-|* ra,|
 G2 G2 G4 | E2 E2 D2 (D2- | D2 ^C2) !fermata!D4 | G2 G2 G4 | G4 G2 G2 | (G2 F2) !fermata!G4 :| %13
w: me- te- se|de ma- ta\_en ma-|* * ta|por la ma-|yor es- pe-|su- * ra.|
w: su be- ber|y su co- mer||es de llo-|ro y\_a- mar-|gu- * ra.|
w: ca- mi- na-|ba\_el ca- ba- lle-|* * ro|las- ti- ma-|do de tris-|tu- * ra.|
w: an- dan- do|de sie- rra\_en sie-|* * rra,|de ca- mi-|no no se|cu- * ra.|
V:3
 d2 d2 d4 | d4 e4 | d4 d4 | !fermata!d4 B2 B2 | c4 B4 | d2 d2 (e2 B2 | c4) !fermata!B4 | z4 d2 d2 | %8
w: Hu- yen- do|de las|flo- res-|tas, hu- yen-|do de|la fres- cu- *|* ra,|me- te-|
w: En sus lá-|gri- mas|ba- ña-|do, más que|mor- tal|su fi- gu- *|* ra|su be-|
w: Por u- nos|puer- tos|a- rri-|ba de mon-|ta- ña|muy es- cu- *|* ra,|ca- mi-|
w: El ca- ba-|llo de-|ja muer-|to, y\_el a|pie por|su ven- tu- *|* ra,|an- dan-|
 c2 c2 A2 A2 | A4 !fermata!A4 | B2 B2 c4 | B4 d2 e2 | d4 !fermata!G4 :| %13
w: se de ma- ta\_en|ma- ta|por la ma-|yor es- pe-|su- ra.|
w: ber y su co-|mer _|es de llo-|ro y\_a- mar-|gu- ra.|
w: na- ba\_el ca- ba-|lle- ro|las- ti- ma-|do de tris-|tu- ra.|
w: do de sie- rra\_en|sie- rra,|de ca- mi-|no no se|cu- ra.|
V:4
 G,2 G,2 D,4 | G,4 C,4 | G,4 D,4 | !fermata!G,4 G,2 G,2 | C,4 G,4 | G,2 G,2 (C,2 G,2 | %6
w: Hu- yen- do|de las|flo- res-|tas, hu- yen-|do de|la fres- cu- *|
w: En sus lá-|gri- mas|ba- ña-|do, más que|mor- tal|su fi- gu- *|
w: Por u- nos|puer- tos|a- rri-|ba de mon-|ta- ña|muy es- cu- *|
w: El ca- ba-|llo de-|ja muer-|to, y\_el a|pie por|su ven- tu- *|
 A,4) !fermata!E,4 | G,2 G,2 G,4 | C,4 D,2 D,2 | A,4 !fermata!D,4 | G,2 G,2 C,4 | G,4 G,2 C,2 | %12
w: * ra,|me- te- se|de ma- ta\_en|ma- ta|por la ma-|yor es- pe-|
w: * ra|su be- ber|y su co-|mer _|es de llo-|ro y\_a- mar-|
w: * ra,|ca- mi- na-|ba\_el ca- ba-|lle- ro|las- ti- ma-|do de tris-|
w: * ra,|an- dan- do|de sie- rra\_en|sie- rra,|de ca- mi-|no no se|
 D,4 !fermata!G,4 :| %13
w: su- ra.|
w: gu- ra.|
w: tu- ra.|
w: cu- ra.|

